X: 43111
T: Windy City, The
R: reel
M: 4/4
K: Edorian
|:BEED EFGA|BEED B2 AG|F~A3 dcde|fged BAFA|
BEED EFGA|BEED B2 AG|F~A3 dAFD|BFAF e4:|
e^deg b~e3|Bebe gece|dF{B}cd f3a|bfaf dfaf|
e^deg b~e3|bz be gece|dF{B}cd faaf|g2f2 efgf|
eBGB efga|b^abg e/f/gfe|d3e f3a|bz af dfaf|
eBeg b~e3|Bebe gece|dF{B}cd faaf|gfgf efed||

